X: 36774
T: Shepherd's Daughter, The
R: reel
M: 4/4
K: Adorian
e3g edBd|eA A2 eA (3B^cd|e2ge edB=c|dG G2 dG (3B^cd|
e2ge ed (3Bcd|eA A2 B3A|GABd efga|bgaf g2fg||
eaaf g2fg|eaag ed (3Bcd|eaaf g2fg|egde gd (3Bcd|
eaaf g2fg|eaab =c'bag|eaaf g2fg|egde gd (3B^cd||


